.local/share/icons/Gruvbox-Plus-Dark/mimetypes/scalable/application-postscript.svg

<svg width="256" height="256" viewBox="0 0 256 256" fill="none" xmlns="http://www.w3.org/2000/svg">
<g opacity="0.4" filter="url(#filter0_f)">
<path d="M55.0839 15.5636H155.608L216.009 75.7129L216.011 224.609C216.011 233.52 208.749 240.737 199.838 240.737H55.0838C46.1734 240.737 39 233.564 39 224.654V31.6474C39 22.737 46.1734 15.5636 55.0838 15.5636H55.0839Z" fill="#282828"/>
</g>
<path d="M55.0839 15H155.608L216.009 75.1493L216.011 224.045C216.011 232.956 208.749 240.174 199.838 240.174H55.0838C46.1734 240.174 39 233 39 224.09V31.0838C39 22.1734 46.1734 15 55.0838 15H55.0839Z" fill="#ebdbb2"/>
<path fill-rule="evenodd" clip-rule="evenodd" d="M155.609 22.9787H55.0839C50.58 22.9787 46.9787 26.5799 46.9787 31.0838V224.09C46.9787 228.594 50.5799 232.195 55.0838 232.195H199.838C204.371 232.195 208.032 228.521 208.032 224.046V75.1493L155.609 22.9787ZM155.608 15H55.0839C46.1735 15 39 22.1734 39 31.0838V224.09C39 233 46.1734 240.174 55.0838 240.174H199.838C208.749 240.174 216.011 232.956 216.011 224.045L216.009 75.1493L155.608 15Z" fill="url(#paint0_linear)"/>
<path fill-rule="evenodd" clip-rule="evenodd" d="M137.261 73L91.5737 127.108C103.472 129.017 123.568 144.063 120.536 164.042C126.708 149.226 115.37 131.148 104.481 123.854L144.332 76.258C142.197 74.6857 140.515 73.8995 137.261 73ZM121.889 76.7758C120.113 76.7833 118.779 77.0403 118.851 77.0403L104.258 93.7686C96.0638 94.2184 88.0928 94.7815 80.3485 95.5639C74.8454 96.127 70.4687 100.504 69.6826 106.343C68.539 117.006 67.9775 127.723 68.0007 138.447C68.0007 149.558 68.5601 160.338 69.6826 170.663C70.4687 177.176 74.8454 180.43 80.3485 181.439C95.6141 183.911 117.728 181.552 117.728 160.561C117.728 140.915 85.5113 132.498 74.5091 137.883L125.363 77.1537C124.225 76.8867 123.058 76.7598 121.889 76.7758V76.7758ZM155.444 93.9916C155.444 93.9916 126.822 157.53 124.014 164.042C119.75 173.695 113.911 180.766 105.494 183.238C112.902 183.574 120.31 183.684 127.944 183.684C144.669 183.684 160.611 182.898 175.54 181.439C181.039 180.88 185.529 176.389 186.206 170.667C187.442 160.338 188.001 149.558 188.001 138.447C188.001 127.335 187.442 116.555 186.206 106.343C185.529 100.504 181.039 96.127 175.54 95.5639C168.857 94.8594 162.156 94.3351 155.444 93.9916V93.9916Z" fill="url(#paint1_linear)"/>
<path opacity="0.25" d="M155.608 17V61.2306C155.608 70.141 162.867 77.1605 171.777 77.1605L216.009 77.1493V75.1493L155.608 17Z" fill="#282828"/>
<path d="M155.608 15V59.2306C155.608 68.141 162.867 75.1605 171.777 75.1605L216.009 75.1493L155.608 15Z" fill="url(#paint2_linear)"/>
<defs>
<filter id="filter0_f" x="23.8778" y="0.441412" width="207.255" height="255.418" filterUnits="userSpaceOnUse" color-interpolation-filters="sRGB">
<feFlood flood-opacity="0" result="BackgroundImageFix"/>
<feBlend mode="normal" in="SourceGraphic" in2="BackgroundImageFix" result="shape"/>
<feGaussianBlur stdDeviation="7.5611" result="effect1_foregroundBlur"/>
</filter>
<linearGradient id="paint0_linear" x1="39" y1="15" x2="39" y2="240.174" gradientUnits="userSpaceOnUse">
<stop offset="1e-07" stop-color="#fe8019"/>
<stop offset="0.5" stop-color="#fb4934"/>
<stop offset="1" stop-color="#cc241d"/>
</linearGradient>
<linearGradient id="paint1_linear" x1="68" y1="73" x2="68" y2="183.684" gradientUnits="userSpaceOnUse">
<stop offset="1e-07" stop-color="#fe8019"/>
<stop offset="0.5" stop-color="#fb4934"/>
<stop offset="1" stop-color="#cc241d"/>
</linearGradient>
<linearGradient id="paint2_linear" x1="155.608" y1="15" x2="155.608" y2="75.1605" gradientUnits="userSpaceOnUse">
<stop offset="1e-07" stop-color="#fe8019"/>
<stop offset="0.5" stop-color="#fb4934"/>
<stop offset="1" stop-color="#cc241d"/>
</linearGradient>
</defs>
</svg>

<svg width="256" height="256" fill="none" version="1.1" viewBox="0 0 256 256" xmlns="http://www.w3.org/2000/svg">
  <path d="m55.08 15h100.5l60.4 60.15 2e-3 148.9c0 8.911-7.262 16.13-16.17 16.13h-144.8c-8.91 0-16.08-7.174-16.08-16.08v-193c0-8.91 7.173-16.08 16.08-16.08h1e-4z" fill="#ebdbb2"/>
  <path d="m155.6 22.98h-100.5c-4.504 0-8.105 3.601-8.105 8.105v193c0 4.504 3.601 8.105 8.105 8.105h144.8c4.533 0 8.194-3.674 8.194-8.149v-148.9l-52.42-52.17zm-1e-3 -7.979h-100.5c-8.91 0-16.08 7.173-16.08 16.08v193c0 8.91 7.173 16.08 16.08 16.08h144.8c8.911 0 16.17-7.218 16.17-16.13l-2e-3 -148.9-60.4-60.15z" clip-rule="evenodd" fill="url(#paint0_linear)" fill-rule="evenodd"/>
  <path d="m137.3 73-45.69 54.11c11.9 1.909 31.99 16.96 28.96 36.93 6.172-14.82-5.166-32.89-16.06-40.19l39.85-47.6c-2.135-1.572-3.817-2.358-7.071-3.258zm-15.37 3.776c-1.776 0.0075-3.11 0.2645-3.038 0.2645l-14.59 16.73c-8.194 0.4498-16.17 1.013-23.91 1.795-5.503 0.5631-9.88 4.94-10.67 10.78-1.144 10.66-1.705 21.38-1.682 32.1 0 11.11 0.5594 21.89 1.682 32.22 0.7861 6.513 5.163 9.767 10.67 10.78 15.27 2.472 37.38 0.113 37.38-20.88 0-19.65-32.22-28.06-43.22-22.68l50.85-60.73c-1.138-0.267-2.305-0.3939-3.474-0.3779zm33.56 17.22s-28.62 63.54-31.43 70.05c-4.264 9.653-10.1 16.72-18.52 19.2 7.408 0.336 14.82 0.446 22.45 0.446 16.72 0 32.67-0.786 47.6-2.245 5.499-0.559 9.989-5.05 10.67-10.77 1.236-10.33 1.795-21.11 1.795-32.22 0-11.11-0.559-21.89-1.795-32.1-0.677-5.839-5.167-10.22-10.67-10.78-6.683-0.7045-13.38-1.229-20.1-1.572z" clip-rule="evenodd" fill="url(#paint1_linear)" fill-rule="evenodd"/>
  <path d="m155.6 17v44.23c0 8.91 7.259 15.93 16.17 15.93l44.23-0.0112v-2l-60.4-58.15z" fill="#282828" opacity=".25"/>
  <path d="m155.6 15v44.23c0 8.91 7.259 15.93 16.17 15.93l44.23-0.0112-60.4-60.15z" fill="url(#paint2_linear)"/>
  <defs>
    <linearGradient id="paint0_linear" x1="39" x2="39" y1="15" y2="240.2" gradientUnits="userSpaceOnUse">
      <stop stop-color="#fe8019" offset="1e-7"/>
      <stop stop-color="#fb4934" offset=".5"/>
      <stop stop-color="#cc241d" offset="1"/>
    </linearGradient>
    <linearGradient id="paint1_linear" x1="68" x2="68" y1="73" y2="183.7" gradientUnits="userSpaceOnUse">
      <stop stop-color="#fe8019" offset="1e-7"/>
      <stop stop-color="#fb4934" offset=".5"/>
      <stop stop-color="#cc241d" offset="1"/>
    </linearGradient>
    <linearGradient id="paint2_linear" x1="155.6" x2="155.6" y1="15" y2="75.16" gradientUnits="userSpaceOnUse">
      <stop stop-color="#fe8019" offset="1e-7"/>
      <stop stop-color="#fb4934" offset=".5"/>
      <stop stop-color="#cc241d" offset="1"/>
    </linearGradient>
  </defs>
</svg>
